packages/calcite-ui-icons/icons/collapse-relationships-24.svg

<?xml version="1.0" encoding="UTF-8"?><svg id="icons" xmlns="http://www.w3.org/2000/svg" viewBox="0 0 24 24"><defs><style>.cls-1{fill:none;}</style></defs><path d="M21,18.05054V5.94946c1.13995-.23224,2-1.24182,2-2.44946,0-1.37891-1.12109-2.5-2.5-2.5s-2.5,1.12109-2.5,2.5c0,1.20764.86005,2.21722,2,2.44946v12.10107c-1.13995.23224-1.99,1.24182-1.99,2.44946,0,1.37891,1.11109,2.5,2.49,2.5s2.49-1.12109,2.49-2.5c0-1.20764-.85005-2.21722-1.99-2.44946ZM22,21c0,.55225-.44769,1-1,1h-1c-.55231,0-1-.44775-1-1v-1c0-.55231.44769-1,1-1h1c.55231,0,1,.44769,1,1v1ZM7,3.5c0-1.37891-1.12109-2.5-2.5-2.5s-2.5,1.12109-2.5,2.5c0,.87.44739,1.63556,1.12311,2.0835-.76361,1.4068-1.11311,3.9726-1.11311,6.4165s.3495,5.0097,1.11311,6.4165c-.67572.44794-1.12311,1.2135-1.12311,2.0835,0,1.37891,1.12109,2.5,2.5,2.5s2.49-1.12109,2.49-2.5c0-.87-.43739-1.63556-1.11311-2.0835.76361-1.4068,1.12311-3.9726,1.12311-6.4165s-.3595-5.0097-1.12311-6.4165c.67572-.44794,1.12311-1.2135,1.12311-2.0835ZM6,20v1c0,.55225-.44769,1-1,1h-1c-.55231,0-1-.44775-1-1v-1c0-.55231.44769-1,1-1h1c.55231,0,1,.44769,1,1ZM6,12c0,3.17163-.57501,5.19977-1.05597,6.04486-.14465-.02612-.29199-.04486-.44403-.04486s-.29938.01874-.44403.04486c-.48096-.84509-1.05597-2.87323-1.05597-6.04486s.57501-5.19977,1.05597-6.04486c.14465.02612.29199.04486.44403.04486s.29938-.01874.44403-.04486c.48096.84509,1.05597,2.87323,1.05597,6.04486ZM18.20703,12.5l-2.85352,2.85352-.70703-.70703,1.64648-1.64648h-7.29297v-1h7.29297l-1.64648-1.64648.70703-.70703,2.85352,2.85352Z"/><rect class="cls-1" x="0" width="24" height="24"/></svg>

<svg xmlns="http://www.w3.org/2000/svg" viewBox="0 0 24 24"><path d="M21 18.05V5.95c1.14-.233 2-1.242 2-2.45C23 2.121 21.879 1 20.5 1S18 2.121 18 3.5c0 1.208.86 2.217 2 2.45v12.1a2.495 2.495 0 0 0-1.99 2.45c0 1.379 1.111 2.5 2.49 2.5s2.49-1.121 2.49-2.5c0-1.208-.85-2.217-1.99-2.45zM22 21a1 1 0 0 1-1 1h-1a1 1 0 0 1-1-1v-1a1 1 0 0 1 1-1h1a1 1 0 0 1 1 1v1zM7 3.5C7 2.121 5.879 1 4.5 1S2 2.121 2 3.5c0 .87.447 1.636 1.123 2.083C2.36 6.99 2.01 9.556 2.01 12s.35 5.01 1.113 6.417A2.497 2.497 0 0 0 4.5 23a2.494 2.494 0 0 0 2.49-2.5c0-.87-.437-1.636-1.113-2.083C6.64 17.01 7 14.444 7 12s-.36-5.01-1.123-6.417A2.497 2.497 0 0 0 7 3.5zM6 20v1a1 1 0 0 1-1 1H4a1 1 0 0 1-1-1v-1a1 1 0 0 1 1-1h1a1 1 0 0 1 1 1zm0-8c0 3.172-.575 5.2-1.056 6.045C4.799 18.019 4.652 18 4.5 18s-.3.019-.444.045C3.575 17.2 3 15.172 3 12s.575-5.2 1.056-6.045c.145.026.292.045.444.045s.3-.019.444-.045C5.425 6.8 6 8.828 6 12zm12.207.5l-2.853 2.854-.708-.708L16.293 13H9v-1h7.293l-1.647-1.646.708-.708 2.853 2.854z"/><path fill="none" d="M0 0h24v24H0z"/></svg>
